X:1
T:I Shall Be Like Him
T:I Shall Be Like Him
T:William Anson Spencer
T:William Anson Spencer, 1897
T:Public Domain Courtesy of the Cyber Hymnal™
T:Public Domain Courtesy of the Cyber Hymnal™
C:William Anson Spencer
Z:Public Domain
Z:Courtesy of the Cyber Hymnal™
%%score 1 ( 2 3 )
L:1/8
Q:1/4=90
M:6/8
K:Eb
V:1 treble 
V:2 bass 
V:3 bass 
V:1
 [EG][EG][EG] [EG][DF][EG] | [GB]>[GB][GB] [GB] [EG]2 | [DF][DF][DF] [DF][CE][DF] | %3
w: 1.~When I shall reach the more|ex- cel- lent glo- ry,|And all my tri- als are|
w: 2.~We shall not wait till the|glor- i- ous dawn- ing|Breaks on the vi- sion so|
w: 3.~More and more like Him, re-|peat the blest sto- ry,|O- ver and o- ver a-|
 [EG]3- [EG]2 z | [GB]>[GB][GB] [GB][EG][GB] | [Ac]>[Ac][Ac] [Ac] !fermata![Ae]2 | %6
w: passed, *|I shall be- hold Him, O|won- der- ful sto- ry!|
w: fair, *|Now we may wel- come that|heav- en- ly morn- ing,|
w: gain, *|Changed by His Spir- it from|glo- ry to glo- ry,|
 [EG]>[EB][EB] [DB][DA][DF] | [B,E]3- [B,E]2 z ||"^Refrain" [EG]>[EG][EG] [EA] [EG]2 | %9
w: I shall be like Him at|last. *||
w: Now we His im- age may|bear. *|I shall be like Him,|
w: I shall be sa- tis- fied|then. *||
 [GB]>[GB][GB] [Ac] [GB]2 | [EG][GB][GB] [Ac][GB]>[EG] | [DF]3- [DF]2 z | %12
w: |||
w: I shall be like Him,|And in His beau- ty shall|shine; *|
w: |||
 [EG]>[GB][GB] [Ac] [GB]2 | [Ge]>[Ge][Ge] [Af] !fermata![Ae]2 | [EG][EB][EB] [DB][DA][DF] | %15
w: |||
w: I shall be like Him,|won- drous- ly like Him,|Je- sus, my Sav- ior di-|
w: |||
 [B,E]3- [B,E]2 z |] %16
w: |
w: vine. *|
w: |
V:2
 [E,B,][E,B,][E,B,] [E,B,][E,B,][E,B,] | [E,E]>[E,E][E,E] [E,E] [E,B,]2 | %2
 [B,,B,][B,,B,][B,,B,] [B,,B,][B,,B,][B,,B,] | [E,B,]3- [E,B,]2 z | %4
 [E,E]>[E,E][E,E] [E,E][E,B,][E,E] | [A,,E]>[A,,E][A,,E] [A,,E] !fermata![A,,C]2 | %6
 [B,,B,]>[B,,G,][B,,G,] [B,,F,][B,,F,][B,,A,] | [E,G,]3- [E,G,]2 z || %8
 [E,B,]>[E,B,][E,B,] [E,C] [E,B,]2 | [E,E]>[E,E][E,E] [E,E] [E,E]2 | %10
 [E,B,][E,B,][E,B,] [E,B,][E,B,]>[G,B,] | B,3- B,2 z | [E,B,]>[E,E][E,E] [E,E] [E,E]2 | %13
 [E,B,]>[E,B,][E,B,] [A,C] [A,C]2 | [B,,B,][B,,G,][B,,G,] [B,,F,][B,,F,][B,,A,] | %15
 [E,G,]3- [E,G,]2 z |] %16
V:3
 x6 | x6 | x6 | x6 | x6 | x6 | x6 | x6 || x6 | x6 | x6 | B,3- B,2 x | x6 | x6 | x6 | x6 |] %16

